X:1
T:Again, as Evening’s Shadow Falls
T:Again, as Evening’s Shadow Falls
T:Herbert Stanley Oakeley, 1874
T:Samuel Longfellow, 1859
T:Public Domain Courtesy of the Cyber Hymnal™
C:Herbert Stanley Oakeley, 1874
Z:Public Domain
Z:Courtesy of the Cyber Hymnal™
%%score ( 1 2 ) ( 3 4 )
L:1/8
Q:1/4=113
M:3/4
K:Ab
V:1 treble 
V:2 treble 
V:3 bass 
V:4 bass 
V:1
 [CE]2 [DA]2 [EG]2 | F4 F2 | d4 [Ac]2 | [EB]6 | [EB]2 [Ac]2 [Gd]2 | [Ee]4 [EA]2 | [EG]4 [=DF]2 | %7
w: 1.~A- gain, as|ev- en-|ing’s sha-|dow|falls, We ga-|ther in|these hal-|
w: 2.~May strug- gling|hearts that|seek re-|lease|Here find the|rest of|God’s own|
w: 3.~O God, our|Light! to|Thee we|bow;|With- in all|sha- dows|stand- est|
w: 4.~Life’s tu- mult|we must|meet a-|gain,|We can- not|at the|shrine re-|
 E6 | [EG]2 [EA]2 [EB]2 | [Fd]4 [Ec]2 | B4 A2 | [EG]6 | [EA]2 [EB]2 [Ec]2 | e4 [Fd]2 | c4 [GB]2 | %15
w: lowed|walls; And ves-|per hymn|and ves-|per|prayer Rise ming-|ling on|the ho-|
w: peace;|And, strength- ened|here by|hymn and|prayer,|Lay down the|bur- den|and the|
w: Thou;|Give deep- er|calm than|night can|bring;|Give sweet- er|songs than|lips can|
w: main;|But in the|spir- it’s|sec- ret|cell|May hymn and|prayer for-|ev- er|
 A6 |] %16
w: ly|
w: care.|
w: sing.|
w: dwell.|
V:2
 x6 | (E2 D2) F2 | (F2 G2) x2 | x6 | x6 | x6 | x6 | E6 | x6 | x6 | (F2 G2) (C=D) | x6 | x6 | %13
 (E2 _G2) x2 | (E2 A2) x2 | A6 |] %16
V:3
 [A,,A,]2 [B,,A,]2 [C,A,]2 | [D,A,]4 [C,=A,]2 | (F,2 B,2) A,2 | [E,G,]6 | [D,G,]2 [C,A,]2 [C,B,]2 | %5
 [A,,C]4 (E,F,) | (G,2 B,2) [B,,A,]2 | [E,G,]6 | [B,D]2 [A,C]2 [G,B,]2 | A,4 [A,C]2 | D4 [F,A,]2 | %11
 B,6 | [C,A,]2 [B,,G,]2 [A,,A,]2 | [C,A,]4 (A,B,) | (C2 E2) [E,D]2 | [A,C]6 |] %16
V:4
 x6 | x6 | B,,4 (C,D,) | x6 | x6 | x4 C,2 | B,,4 x2 | x6 | x6 | A,4 x2 | (D,2 E,2) x2 | (E,4 D,2) | %12
 x6 | x4 D,2 | E,4 x2 | x6 |] %16

